!!!OTL: Die Mordeltern Es hatt' ein Gastwirt einen Sohn,
!!!ARE: Europa, Mitteleuropa, Deutschland (), Mecklenburg
!!!YOR: 4, S. 308
!!    ????
!!!SCT: Q0085M
!!!YEM: Copyright 1995, estate of Helmut Schaffrath.
**kern
*ICvox
*Ivox
!! Irregular meter.
*MX
*k[f#]
*G:
{4b
=1
8g
8g
8.f#
16g
8f#
8a
=2
8f#
8a
2a}
{4cc
=3
8a
8f#
4d
4cc
=4
8b
8a
4g
8r}
{8d
=5
8.g
16a
4.b
8a
=6
4.g
8e
4e}
{4b
=7
4b
8a
8b
8cc
8a
=8
8.d
16f#
2g}
==
!!!AGN: Ballade, Habgier, Mord, Reue, Selbstmord
!!!ONB: ESAC (Essen Associative Code) Database: BALLADE
!!!AMT: irregular
!!!AIN: vox
!!!EED: Helmut Schaffrath
!!!EEV: 1.0
*-
